X:5931
T:Gan Ainm
R:Reel
S:
H:
N:
D:
Z:Adrian Scahill
M:4/4
L:1/8
K:G
A3d BGAG|EGGF G2AG|EAA2 BABd|egdc BcdB|\
A3d BGAG|EGGF G2AB|c3A B2GB|dBGA BAA2||\
:A2Bd egdB|GBB2 defg|aged (3efg dB|GBdB BAA2|aged egdB|GBB2 defg|afge fdef|g2af gedB:||


